svgs/solid/grill.svg

<svg xmlns="http://www.w3.org/2000/svg" viewBox="0 0 448 512"><!--! Font Awesome Pro 6.2.0 by @fontawesome - https://fontawesome.com License - https://fontawesome.com/license (Commercial License) Copyright 2022 Fonticons, Inc. --><path d="M0 72C0 49.9 17.9 32 40 32H408c22.1 0 40 17.9 40 40V96c0 89.8-52.9 167.3-129.2 203l63.2 147.5c5.2 12.2-.4 26.3-12.6 31.5s-26.3-.4-31.5-12.6L316.7 416H160c0 35.3-28.7 64-64 64s-64-28.7-64-64s28.7-64 64-64c3.4 0 6.8 .3 10.1 .8L129.2 299C52.9 263.3 0 185.8 0 96V72zM151.8 368H296.2l-22.9-53.4c-15.9 3.6-32.3 5.4-49.3 5.4s-33.4-1.9-49.3-5.4L151.8 368zM96 440c13.3 0 24-10.7 24-24s-10.7-24-24-24s-24 10.7-24 24s10.7 24 24 24z"/></svg>

<svg xmlns="http://www.w3.org/2000/svg" viewBox="0 0 448 512"><!--! Font Awesome Pro 6.1.2 by @fontawesome - https://fontawesome.com License - https://fontawesome.com/license (Commercial License) Copyright 2022 Fonticons, Inc. --><path d="M0 72C0 49.91 17.91 32 40 32H408C430.1 32 448 49.91 448 72V96C448 185.8 395.1 263.3 318.8 298.1L382.1 446.5C387.3 458.7 381.6 472.8 369.5 478.1C357.3 483.3 343.2 477.6 337.9 465.5L316.7 416H160C160 451.3 131.3 480 96 480C60.65 480 32 451.3 32 416C32 380.7 60.65 352 96 352C99.44 352 102.8 352.3 106.1 352.8L129.2 298.1C52.86 263.3 0 185.8 0 96V72zM151.8 368H296.2L273.3 314.6C257.4 318.1 240.9 320 224 320C207.1 320 190.6 318.1 174.7 314.6L151.8 368zM96 440C109.3 440 120 429.3 120 416C120 402.7 109.3 392 96 392C82.75 392 72 402.7 72 416C72 429.3 82.75 440 96 440z"/></svg>
